Gruvbox-Material-Icons/apps/scalable/user-alt1.svg

<svg width="256" height="256" style="isolation:isolate" version="1.1" viewBox="0 0 256 256" xmlns="http://www.w3.org/2000/svg">
  <g filter="url(#5ZaDLdQruraMT3Yh4fwP7HxS6n5xuNSM)">
    <linearGradient id="_lgradient_52" x1=".02311" x2=".9687" y1="-.00562" y2="1.025" gradientTransform="matrix(244.6 0 0 228.3 5.68 11.95)" gradientUnits="userSpaceOnUse">
      <stop stop-color="#282828" offset="1e-7"/>
      <stop stop-color="#3c3836" offset="1"/>
    </linearGradient>
    <path d="m165.7 11.95c74.06 0 84.64 10.56 84.64 84.54v59.25c0 73.99-10.58 84.54-84.64 84.54h-75.37c-74.06 0-84.64-10.56-84.64-84.54v-59.25c0-73.99 10.58-84.54 84.64-84.54h75.37z" fill="url(#_lgradient_52)"/>
  </g>
  <g opacity=".4">
    <linearGradient id="_lgradient_53" x1=".5167" x2=".5167" y2="1" gradientTransform="matrix(244.6 0 0 228.3 5.68 11.95)" gradientUnits="userSpaceOnUse">
      <stop stop-color="#ebdbb2" offset="0"/>
      <stop stop-color="#ebdbb2" stop-opacity=".09804" offset=".125"/>
      <stop stop-color="#282828" stop-opacity=".09804" offset=".925"/>
      <stop stop-color="#282828" stop-opacity=".498" offset="1"/>
    </linearGradient>
    <path d="m165.1 11.95c4.328-0.01 8.656 0.04 12.98 0.138 3.875 0.078 7.751 0.226 11.63 0.452 3.453 0.196 6.905 0.481 10.35 0.854 3.059 0.335 6.118 0.786 9.148 1.346 2.715 0.502 5.4 1.14 8.046 1.916 2.4 0.698 4.751 1.562 7.023 2.584 2.115 0.943 4.141 2.063 6.059 3.35 1.84 1.238 3.561 2.653 5.135 4.215 1.564 1.572 2.98 3.282 4.219 5.119 1.289 1.916 2.41 3.94 3.364 6.042 1.023 2.28 1.889 4.618 2.597 7.005 0.777 2.643 1.417 5.325 1.918 8.037 0.561 3.026 1.013 6.072 1.348 9.127 0.374 3.439 0.659 6.878 0.856 10.33 0.226 3.861 0.373 7.732 0.462 11.59 0.088 4.323 0.138 8.646 0.128 12.96v58.21c0.01 4.323-0.04 8.636-0.128 12.96-0.089 3.871-0.236 7.732-0.462 11.59-0.197 3.448-0.482 6.897-0.856 10.33-0.335 3.055-0.787 6.111-1.348 9.137-0.501 2.702-1.141 5.384-1.918 8.027-0.708 2.387-1.574 4.735-2.597 7.005-0.954 2.112-2.075 4.126-3.364 6.042-1.239 1.837-2.655 3.557-4.219 5.119-1.574 1.562-3.295 2.977-5.135 4.215-1.918 1.287-3.944 2.407-6.059 3.35-2.272 1.022-4.623 1.886-7.023 2.594-2.646 0.776-5.331 1.414-8.046 1.906-3.03 0.569-6.089 1.011-9.148 1.346-3.443 0.373-6.895 0.658-10.35 0.854-3.875 0.226-7.751 0.374-11.63 0.462-4.328 0.088-8.656 0.138-12.98 0.128h-74.13c-4.328 0.01-8.656-0.04-12.98-0.128-3.875-0.088-7.751-0.236-11.63-0.462-3.453-0.196-6.905-0.481-10.35-0.854-3.059-0.335-6.118-0.777-9.148-1.346-2.715-0.492-5.4-1.13-8.046-1.906-2.4-0.708-4.751-1.572-7.023-2.594-2.115-0.943-4.141-2.063-6.059-3.35-1.84-1.238-3.561-2.653-5.135-4.215-1.564-1.562-2.98-3.282-4.219-5.119-1.289-1.916-2.41-3.93-3.364-6.042-1.023-2.27-1.889-4.618-2.597-7.005-0.777-2.643-1.417-5.325-1.918-8.027-0.561-3.026-1.013-6.082-1.348-9.137-0.374-3.429-0.659-6.878-0.856-10.33-0.226-3.861-0.373-7.722-0.462-11.59-0.088-4.323-0.138-8.636-0.128-12.96v-58.21c-0.01-4.313 0.04-8.636 0.128-12.96 0.089-3.861 0.236-7.732 0.462-11.59 0.197-3.448 0.482-6.887 0.856-10.33 0.335-3.055 0.787-6.101 1.348-9.127 0.501-2.712 1.141-5.394 1.918-8.037 0.708-2.387 1.574-4.725 2.597-7.005 0.954-2.102 2.075-4.126 3.364-6.042 1.239-1.837 2.655-3.547 4.219-5.119 1.574-1.562 3.295-2.977 5.135-4.215 1.918-1.287 3.944-2.407 6.059-3.35 2.272-1.022 4.623-1.886 7.023-2.584 2.646-0.776 5.331-1.414 8.046-1.916 3.03-0.56 6.089-1.011 9.148-1.346 3.443-0.373 6.895-0.658 10.35-0.854 3.875-0.226 7.751-0.374 11.63-0.452 4.328-0.098 8.656-0.148 12.98-0.138h74.13zm0.01 4.009c4.298-0.01 8.597 0.039 12.9 0.127 3.827 0.089 7.653 0.236 11.48 0.452 3.384 0.197 6.767 0.472 10.13 0.845 2.971 0.315 5.932 0.747 8.863 1.297 2.577 0.472 5.134 1.081 7.653 1.818 2.223 0.648 4.396 1.454 6.501 2.397 1.909 0.855 3.738 1.867 5.469 3.026 1.623 1.091 3.138 2.338 4.525 3.724 1.387 1.385 2.636 2.898 3.738 4.519 1.16 1.729 2.174 3.547 3.029 5.443 0.945 2.112 1.751 4.284 2.4 6.494 0.748 2.515 1.348 5.06 1.83 7.634 0.541 2.928 0.974 5.875 1.298 8.842 0.374 3.36 0.65 6.73 0.846 10.11 0.217 3.822 0.374 7.634 0.453 11.46 0.088 4.293 0.137 8.577 0.137 12.87v58.21c0 4.293-0.049 8.577-0.137 12.87-0.079 3.822-0.236 7.644-0.453 11.46-0.196 3.38-0.472 6.75-0.846 10.12-0.324 2.957-0.757 5.904-1.298 8.832-0.482 2.574-1.082 5.119-1.83 7.634-0.649 2.22-1.455 4.382-2.4 6.494-0.855 1.896-1.869 3.724-3.029 5.443-1.102 1.631-2.351 3.144-3.738 4.529-1.387 1.376-2.902 2.623-4.525 3.714-1.731 1.159-3.56 2.171-5.469 3.026-2.105 0.953-4.278 1.749-6.501 2.397-2.519 0.737-5.076 1.346-7.653 1.818-2.931 0.55-5.892 0.982-8.863 1.306-3.364 0.364-6.747 0.649-10.13 0.836-3.826 0.216-7.652 0.373-11.48 0.452-4.298 0.098-8.597 0.137-12.9 0.137h-0.01-74.13-0.01c-4.298 0-8.597-0.039-12.9-0.137-3.827-0.079-7.653-0.236-11.48-0.452-3.384-0.187-6.767-0.472-10.13-0.836-2.971-0.324-5.932-0.756-8.863-1.306-2.577-0.472-5.134-1.081-7.653-1.818-2.223-0.648-4.396-1.444-6.501-2.397-1.909-0.855-3.738-1.867-5.469-3.026-1.623-1.091-3.138-2.338-4.525-3.714-1.387-1.385-2.636-2.898-3.738-4.529-1.16-1.719-2.174-3.547-3.029-5.443-0.945-2.112-1.751-4.274-2.4-6.494-0.748-2.515-1.348-5.06-1.83-7.634-0.541-2.928-0.974-5.875-1.298-8.832-0.374-3.37-0.649-6.74-0.846-10.12-0.217-3.812-0.374-7.634-0.453-11.46-0.088-4.293-0.137-8.577-0.137-12.87v-58.21c0-4.293 0.049-8.577 0.137-12.87 0.079-3.822 0.236-7.634 0.453-11.46 0.197-3.38 0.472-6.75 0.846-10.11 0.324-2.967 0.757-5.914 1.298-8.842 0.482-2.574 1.082-5.119 1.83-7.634 0.649-2.21 1.455-4.382 2.4-6.494 0.855-1.896 1.869-3.714 3.029-5.443 1.102-1.621 2.351-3.134 3.738-4.519 1.387-1.386 2.902-2.633 4.525-3.724 1.731-1.159 3.56-2.171 5.469-3.026 2.105-0.943 4.278-1.749 6.501-2.397 2.519-0.737 5.076-1.346 7.653-1.818 2.931-0.55 5.892-0.982 8.863-1.297 3.364-0.373 6.747-0.648 10.13-0.845 3.826-0.216 7.652-0.363 11.48-0.452 4.298-0.088 8.597-0.137 12.9-0.127h0.01 74.13 0.01z" fill="url(#_lgradient_53)" fill-rule="evenodd"/>
  </g>
  <linearGradient id="_lgradient_54" x2="1" y1=".5" y2=".5" gradientTransform="matrix(107.2 0 0 145 74.38 54.5)" gradientUnits="userSpaceOnUse">
    <stop stop-color="#83a598" offset="0"/>
    <stop stop-color="#076678" offset="1"/>
  </linearGradient>
  <path d="m128 54.5c-4.906 0-9.589 0.913-13.89 2.76-4.22 1.727-8.026 4.33-11.17 7.643l-0.01 0.015-0.01 0.01-0.01 4e-3 -0.019 0.025c-3.067 3.338-5.423 7.346-7.08 11.88l0.054-0.128-0.06 0.148 6e-3 -0.015c-0.011 0.015-0.011 0.03-0.016 0.044 0 5e-3 -3e-3 0.01-3e-3 0.01-0.011 0.025-0.011 0.029 0 5e-3l-0.06 0.182c-1.627 4.477-2.421 9.349-2.421 14.54 0 5.364 0.808 10.36 2.5 14.91 1.657 4.458 4.018 8.416 7.075 11.75l5e-3 5e-3 0.019 0.024 0.03 0.03c1.268 1.341 2.677 2.494 4.131 3.575-0.907 0.276-1.828 0.512-2.711 0.857-6.729 2.633-12.45 6.287-16.95 11l-0.016 0.011-0.024 0.029-0.035 0.04c-4.397 4.738-7.705 10.33-9.885 16.63l-0.024 0.058-0.035 0.109c-2.016 6.261-3.003 12.98-3.003 20.08v13.31l1.82 1.451v5e-3l0.064 0.049s4.762 3.722 13.41 7.154c8.637 3.432 21.45 6.794 38.32 6.794 16.87 0 29.68-3.362 38.32-6.794 8.648-3.432 13.41-7.154 13.41-7.154l0.059-0.049 5e-3 -5e-3 0.675-0.538h1.15v-14.22c0-7.114-1.06-13.84-3.206-20.12l-9e-3 -0.016-0.03-0.083-0.014-0.039c-2.071-6.331-5.404-11.97-9.949-16.7v-5e-3c-3.314-3.471-7.293-6.36-11.84-8.691l-1.07-0.553-0.903 0.789c-1.78 1.549-3.697 2.928-5.734 4.127l-2.962 1.755 3.174 1.352c4.986 2.114 8.959 4.796 12.08 8.06l9e-3 0.01c3.545 3.698 6.08 7.968 7.717 13.02l0.029 0.094 0.01 0.024c1.785 5.182 2.692 10.81 2.692 16.98v8.254c-1.355 0.921-3.767 2.421-9.008 4.496-7.568 3.008-19.06 6.078-34.6 6.078-15.54 0-27.03-3.07-34.6-6.078-5.241-2.08-7.653-3.575-9.008-4.496v-8.254c0-6.177 0.853-11.82 2.519-17.01 1.761-5.108 4.334-9.422 7.776-13.13l4e-3 -5e-3c3.383-3.53 7.751-6.396 13.33-8.574 5.429-2.126 12.04-3.264 19.91-3.274h0.069c4.871 0 9.506-0.853 13.79-2.594l0.083-0.029 0.109-0.049 0.015-0.01c4.161-1.78 7.893-4.418 10.96-7.736 3.152-3.332 5.572-7.306 7.238-11.79 1.692-4.556 2.5-9.555 2.5-14.91 0-5.286-0.813-10.24-2.494-14.78l-6e-3 -0.01-0.039-0.094-0.025-0.049c-1.656-4.487-4.043-8.46-7.169-11.77l-5e-3 -0.01-0.049-0.049-0.058-0.05c-3.062-3.284-6.799-5.867-10.96-7.559l-5e-3 -5e-3c-4.131-1.774-8.618-2.657-13.31-2.726l-0.044-0.029h-0.538zm-0.015 9.929h0.031c3.683 0 6.931 0.657 9.924 1.943l5e-3 5e-3 0.015 0.01 0.039 0.015 0.024 9e-3c3.013 1.228 5.468 2.934 7.573 5.232h5e-3l0.02 0.024 0.045 0.049c2.174 2.298 3.874 5.079 5.133 8.519v5e-3l9e-3 0.026c1.233 3.313 1.884 7.069 1.884 11.36 0 4.378-0.656 8.174-1.884 11.48-1.252 3.362-2.953 6.118-5.147 8.44l-0.035 0.03-0.034 0.045c-2.115 2.297-4.59 4.047-7.618 5.354-2.967 1.207-6.202 1.833-9.85 1.849h-0.173c-3.673-0.01-6.926-0.637-9.91-1.844-2.933-1.244-5.58-3.083-7.77-5.395-2.129-2.321-3.815-5.093-5.073-8.479-1.228-3.304-1.884-7.1-1.884-11.48 0-4.29 0.651-8.041 1.884-11.35l0.019-0.055c1.262-3.452 2.944-6.246 5.049-8.544 2.159-2.287 4.787-4.082 7.707-5.256l0.014-5e-3 0.045-0.019 0.029-0.015 0.015-5e-3c2.988-1.286 6.231-1.943 9.909-1.943zm13.38 60.51 0.168 0.4-0.173-0.395 5e-3 -5e-3z" fill="url(#_lgradient_54)"/>
</svg>

<?xml version="1.0" standalone="no"?><!-- Generator: Gravit.io --><svg xmlns="http://www.w3.org/2000/svg" xmlns:xlink="http://www.w3.org/1999/xlink" style="isolation:isolate" viewBox="0 0 256 256" width="256" height="256"><defs><filter id="5ZaDLdQruraMT3Yh4fwP7HxS6n5xuNSM" x="-200%" y="-200%" width="400%" height="400%" filterUnits="objectBoundingBox" color-interpolation-filters="sRGB"><feGaussianBlur xmlns="http://www.w3.org/2000/svg" in="SourceGraphic" stdDeviation="4.293609062839028"/><feOffset xmlns="http://www.w3.org/2000/svg" dx="0" dy="4" result="pf_100_offsetBlur"/><feFlood xmlns="http://www.w3.org/2000/svg" flood-color="#282828" flood-opacity="0.4"/><feComposite xmlns="http://www.w3.org/2000/svg" in2="pf_100_offsetBlur" operator="in" result="pf_100_dropShadow"/><feBlend xmlns="http://www.w3.org/2000/svg" in="SourceGraphic" in2="pf_100_dropShadow" mode="normal"/></filter></defs><g filter="url(#5ZaDLdQruraMT3Yh4fwP7HxS6n5xuNSM)"><linearGradient id="_lgradient_52" x1="0.023107906274932394" y1="-0.005620416395793915" x2="0.9686830348959417" y2="1.0250137678772169" gradientTransform="matrix(244.648,0,0,228.338,5.68,11.95)" gradientUnits="userSpaceOnUse"><stop offset="0.000009999999999999999%" stop-opacity="1" style="stop-color:#282828"/><stop offset="100%" stop-opacity="1" style="stop-color:#3c3836"/></linearGradient><path d=" M 165.689 11.95 C 239.745 11.95 250.328 22.507 250.328 96.494 L 250.328 155.745 C 250.328 229.731 239.745 240.288 165.689 240.288 L 90.319 240.288 C 16.264 240.288 5.68 229.731 5.68 155.745 L 5.68 96.494 C 5.68 22.507 16.264 11.95 90.319 11.95 L 165.689 11.95 Z " id="shape" fill="url(#_lgradient_52)"/></g><g opacity="0.4"><linearGradient id="_lgradient_53" x1="0.5166666666666668" y1="0" x2="0.5166666666666666" y2="1.0000000000000002" gradientTransform="matrix(244.65,0,0,228.34,5.68,11.95)" gradientUnits="userSpaceOnUse"><stop offset="0%" stop-opacity="1" style="stop-color:#ebdbb2"/><stop offset="12.5%" stop-opacity="0.09803922" style="stop-color:#ebdbb2"/><stop offset="92.500001%" stop-opacity="0.09803922" style="stop-color:#282828"/><stop offset="100%" stop-opacity="0.49803922" style="stop-color:#282828"/></linearGradient><path d=" M 165.068 11.951 C 169.396 11.941 173.724 11.991 178.052 12.089 C 181.927 12.167 185.803 12.315 189.678 12.541 C 193.131 12.737 196.583 13.022 200.026 13.395 C 203.085 13.73 206.144 14.181 209.174 14.741 C 211.889 15.243 214.574 15.881 217.22 16.657 C 219.62 17.355 221.971 18.219 224.243 19.241 C 226.358 20.184 228.384 21.304 230.302 22.591 C 232.142 23.829 233.863 25.244 235.437 26.806 C 237.001 28.378 238.417 30.088 239.656 31.925 C 240.945 33.841 242.066 35.865 243.02 37.967 C 244.043 40.247 244.909 42.585 245.617 44.972 C 246.394 47.615 247.034 50.297 247.535 53.009 C 248.096 56.035 248.548 59.081 248.883 62.136 C 249.257 65.575 249.542 69.014 249.739 72.462 C 249.965 76.323 250.112 80.194 250.201 84.055 C 250.289 88.378 250.339 92.701 250.329 97.014 L 250.329 155.226 C 250.339 159.549 250.289 163.862 250.201 168.185 C 250.112 172.056 249.965 175.917 249.739 179.778 C 249.542 183.226 249.257 186.675 248.883 190.104 C 248.548 193.159 248.096 196.215 247.535 199.241 C 247.034 201.943 246.394 204.625 245.617 207.268 C 244.909 209.655 244.043 212.003 243.02 214.273 C 242.066 216.385 240.945 218.399 239.656 220.315 C 238.417 222.152 237.001 223.872 235.437 225.434 C 233.863 226.996 232.142 228.411 230.302 229.649 C 228.384 230.936 226.358 232.056 224.243 232.999 C 221.971 234.021 219.62 234.885 217.22 235.593 C 214.574 236.369 211.889 237.007 209.174 237.499 C 206.144 238.068 203.085 238.51 200.026 238.845 C 196.583 239.218 193.131 239.503 189.678 239.699 C 185.803 239.925 181.927 240.073 178.052 240.161 C 173.724 240.249 169.396 240.299 165.068 240.289 L 90.942 240.289 C 86.614 240.299 82.286 240.249 77.958 240.161 C 74.083 240.073 70.207 239.925 66.332 239.699 C 62.879 239.503 59.427 239.218 55.984 238.845 C 52.925 238.51 49.866 238.068 46.836 237.499 C 44.121 237.007 41.436 236.369 38.79 235.593 C 36.39 234.885 34.039 234.021 31.767 232.999 C 29.652 232.056 27.626 230.936 25.708 229.649 C 23.868 228.411 22.147 226.996 20.573 225.434 C 19.009 223.872 17.593 222.152 16.354 220.315 C 15.065 218.399 13.944 216.385 12.99 214.273 C 11.967 212.003 11.101 209.655 10.393 207.268 C 9.616 204.625 8.976 201.943 8.475 199.241 C 7.914 196.215 7.462 193.159 7.127 190.104 C 6.753 186.675 6.468 183.226 6.271 179.778 C 6.045 175.917 5.898 172.056 5.809 168.185 C 5.721 163.862 5.671 159.549 5.681 155.226 L 5.681 97.014 C 5.671 92.701 5.721 88.378 5.809 84.055 C 5.898 80.194 6.045 76.323 6.271 72.462 C 6.468 69.014 6.753 65.575 7.127 62.136 C 7.462 59.081 7.914 56.035 8.475 53.009 C 8.976 50.297 9.616 47.615 10.393 44.972 C 11.101 42.585 11.967 40.247 12.99 37.967 C 13.944 35.865 15.065 33.841 16.354 31.925 C 17.593 30.088 19.009 28.378 20.573 26.806 C 22.147 25.244 23.868 23.829 25.708 22.591 C 27.626 21.304 29.652 20.184 31.767 19.241 C 34.039 18.219 36.39 17.355 38.79 16.657 C 41.436 15.881 44.121 15.243 46.836 14.741 C 49.866 14.181 52.925 13.73 55.984 13.395 C 59.427 13.022 62.879 12.737 66.332 12.541 C 70.207 12.315 74.083 12.167 77.958 12.089 C 82.286 11.991 86.614 11.941 90.942 11.951 L 165.068 11.951 Z  M 165.078 15.96 C 169.376 15.95 173.675 15.999 177.973 16.087 C 181.8 16.176 185.626 16.323 189.452 16.539 C 192.836 16.736 196.219 17.011 199.583 17.384 C 202.554 17.699 205.515 18.131 208.446 18.681 C 211.023 19.153 213.58 19.762 216.099 20.499 C 218.322 21.147 220.495 21.953 222.6 22.896 C 224.509 23.751 226.338 24.763 228.069 25.922 C 229.692 27.013 231.207 28.26 232.594 29.646 C 233.981 31.031 235.23 32.544 236.332 34.165 C 237.492 35.894 238.506 37.712 239.361 39.608 C 240.306 41.72 241.112 43.892 241.761 46.102 C 242.509 48.617 243.109 51.162 243.591 53.736 C 244.132 56.664 244.565 59.611 244.889 62.578 C 245.263 65.938 245.539 69.308 245.735 72.688 C 245.952 76.51 246.109 80.322 246.188 84.144 C 246.276 88.437 246.325 92.721 246.325 97.014 C 246.325 97.014 246.325 97.014 246.325 97.014 L 246.325 155.226 C 246.325 155.226 246.325 155.226 246.325 155.226 C 246.325 159.519 246.276 163.803 246.188 168.096 C 246.109 171.918 245.952 175.74 245.735 179.552 C 245.539 182.932 245.263 186.302 244.889 189.672 C 244.565 192.629 244.132 195.576 243.591 198.504 C 243.109 201.078 242.509 203.623 241.761 206.138 C 241.112 208.358 240.306 210.52 239.361 212.632 C 238.506 214.528 237.492 216.356 236.332 218.075 C 235.23 219.706 233.981 221.219 232.594 222.604 C 231.207 223.98 229.692 225.227 228.069 226.318 C 226.338 227.477 224.509 228.489 222.6 229.344 C 220.495 230.297 218.322 231.093 216.099 231.741 C 213.58 232.478 211.023 233.087 208.446 233.559 C 205.515 234.109 202.554 234.541 199.583 234.865 C 196.219 235.229 192.836 235.514 189.452 235.701 C 185.626 235.917 181.8 236.074 177.973 236.153 C 173.675 236.251 169.376 236.29 165.078 236.29 C 165.078 236.29 165.078 236.29 165.068 236.29 L 90.942 236.29 C 90.932 236.29 90.932 236.29 90.932 236.29 C 86.634 236.29 82.335 236.251 78.037 236.153 C 74.21 236.074 70.384 235.917 66.558 235.701 C 63.174 235.514 59.791 235.229 56.427 234.865 C 53.456 234.541 50.495 234.109 47.564 233.559 C 44.987 233.087 42.43 232.478 39.911 231.741 C 37.688 231.093 35.515 230.297 33.41 229.344 C 31.501 228.489 29.672 227.477 27.941 226.318 C 26.318 225.227 24.803 223.98 23.416 222.604 C 22.029 221.219 20.78 219.706 19.678 218.075 C 18.518 216.356 17.504 214.528 16.649 212.632 C 15.704 210.52 14.898 208.358 14.249 206.138 C 13.501 203.623 12.901 201.078 12.419 198.504 C 11.878 195.576 11.445 192.629 11.121 189.672 C 10.747 186.302 10.472 182.932 10.275 179.552 C 10.058 175.74 9.901 171.918 9.822 168.096 C 9.734 163.803 9.685 159.519 9.685 155.226 C 9.685 155.226 9.685 155.226 9.685 155.226 L 9.685 97.014 C 9.685 97.014 9.685 97.014 9.685 97.014 C 9.685 92.721 9.734 88.437 9.822 84.144 C 9.901 80.322 10.058 76.51 10.275 72.688 C 10.472 69.308 10.747 65.938 11.121 62.578 C 11.445 59.611 11.878 56.664 12.419 53.736 C 12.901 51.162 13.501 48.617 14.249 46.102 C 14.898 43.892 15.704 41.72 16.649 39.608 C 17.504 37.712 18.518 35.894 19.678 34.165 C 20.78 32.544 22.029 31.031 23.416 29.646 C 24.803 28.26 26.318 27.013 27.941 25.922 C 29.672 24.763 31.501 23.751 33.41 22.896 C 35.515 21.953 37.688 21.147 39.911 20.499 C 42.43 19.762 44.987 19.153 47.564 18.681 C 50.495 18.131 53.456 17.699 56.427 17.384 C 59.791 17.011 63.174 16.736 66.558 16.539 C 70.384 16.323 74.21 16.176 78.037 16.087 C 82.335 15.999 86.634 15.95 90.932 15.96 C 90.932 15.96 90.932 15.96 90.942 15.96 L 165.068 15.96 C 165.078 15.96 165.078 15.96 165.078 15.96 Z " fill-rule="evenodd" id="highlight" fill="url(#_lgradient_53)"/></g><linearGradient id="_lgradient_54" x1="0" y1="0.5" x2="1" y2="0.5" gradientTransform="matrix(107.23,0,0,145,74.385,54.5)" gradientUnits="userSpaceOnUse"><stop offset="0%" stop-opacity="1" style="stop-color:#83a598"/><stop offset="100%" stop-opacity="1" style="stop-color:#076678"/></linearGradient><path d=" M 127.997 54.5 C 123.091 54.5 118.408 55.413 114.104 57.26 C 109.884 58.987 106.078 61.59 102.937 64.903 L 102.927 64.918 L 102.917 64.928 L 102.907 64.932 L 102.888 64.957 C 99.821 68.295 97.465 72.303 95.808 76.834 L 95.862 76.706 L 95.802 76.854 L 95.808 76.839 C 95.797 76.854 95.797 76.869 95.792 76.883 C 95.792 76.888 95.789 76.893 95.789 76.893 C 95.778 76.918 95.778 76.922 95.789 76.898 L 95.729 77.08 C 94.102 81.557 93.308 86.429 93.308 91.625 C 93.308 96.989 94.116 101.989 95.808 106.539 C 97.465 110.997 99.826 114.955 102.883 118.288 L 102.888 118.293 L 102.907 118.317 L 102.937 118.347 C 104.205 119.688 105.614 120.841 107.068 121.922 C 106.161 122.198 105.24 122.434 104.357 122.779 C 97.628 125.412 91.907 129.066 87.407 133.783 L 87.391 133.794 L 87.367 133.823 L 87.332 133.863 C 82.935 138.601 79.627 144.196 77.447 150.493 L 77.423 150.551 L 77.388 150.66 C 75.372 156.921 74.385 163.637 74.385 170.741 L 74.385 184.047 L 76.205 185.498 L 76.205 185.503 L 76.269 185.552 C 76.269 185.552 81.031 189.274 89.68 192.706 C 98.317 196.138 111.126 199.5 127.997 199.5 C 144.869 199.5 157.678 196.138 166.315 192.706 C 174.963 189.274 179.726 185.552 179.726 185.552 L 179.785 185.503 L 179.79 185.498 L 180.465 184.96 L 181.615 184.96 L 181.615 170.741 C 181.615 163.627 180.555 156.897 178.409 150.626 L 178.4 150.61 L 178.37 150.527 L 178.356 150.488 C 176.285 144.157 172.952 138.522 168.407 133.783 L 168.407 133.778 C 165.093 130.307 161.114 127.418 156.569 125.087 L 155.499 124.534 L 154.596 125.323 C 152.816 126.872 150.899 128.251 148.862 129.45 L 145.9 131.205 L 149.074 132.557 C 154.06 134.671 158.033 137.353 161.149 140.617 L 161.158 140.627 C 164.703 144.325 167.238 148.595 168.875 153.648 L 168.904 153.742 L 168.914 153.766 C 170.699 158.948 171.606 164.579 171.606 170.741 L 171.606 178.995 C 170.251 179.916 167.839 181.416 162.598 183.491 C 155.03 186.499 143.538 189.569 127.997 189.569 C 112.462 189.569 100.965 186.499 93.397 183.491 C 88.156 181.411 85.744 179.916 84.389 178.995 L 84.389 170.741 C 84.389 164.564 85.242 158.923 86.908 153.732 C 88.669 148.624 91.242 144.31 94.684 140.598 L 94.688 140.593 C 98.071 137.063 102.439 134.197 108.02 132.019 C 113.449 129.893 120.065 128.755 127.928 128.745 L 127.997 128.745 C 132.868 128.745 137.503 127.892 141.783 126.151 L 141.866 126.122 L 141.975 126.073 L 141.99 126.063 C 146.151 124.283 149.883 121.645 152.954 118.327 C 156.106 114.995 158.526 111.021 160.192 106.539 C 161.884 101.983 162.692 96.984 162.692 91.625 C 162.692 86.339 161.879 81.385 160.198 76.849 L 160.192 76.839 L 160.153 76.745 L 160.128 76.696 C 158.472 72.209 156.085 68.236 152.959 64.928 L 152.954 64.918 L 152.905 64.869 L 152.847 64.819 C 149.785 61.535 146.048 58.952 141.891 57.26 L 141.886 57.255 C 137.755 55.481 133.268 54.598 128.579 54.529 L 128.535 54.5 L 127.997 54.5 Z  M 127.982 64.429 L 128.013 64.429 C 131.696 64.429 134.944 65.086 137.937 66.372 L 137.942 66.377 L 137.957 66.387 L 137.996 66.402 L 138.02 66.411 C 141.033 67.639 143.488 69.345 145.593 71.643 L 145.598 71.643 L 145.618 71.667 L 145.663 71.716 C 147.837 74.014 149.537 76.795 150.796 80.235 L 150.796 80.24 L 150.805 80.266 C 152.038 83.579 152.689 87.335 152.689 91.625 C 152.689 96.003 152.033 99.799 150.805 103.103 C 149.553 106.465 147.852 109.221 145.658 111.543 L 145.623 111.573 L 145.589 111.618 C 143.474 113.915 140.999 115.665 137.971 116.972 C 135.004 118.179 131.769 118.805 128.121 118.821 L 127.948 118.821 C 124.275 118.811 121.022 118.184 118.038 116.977 C 115.105 115.733 112.458 113.894 110.268 111.582 C 108.139 109.261 106.453 106.489 105.195 103.103 C 103.967 99.799 103.311 96.003 103.311 91.625 C 103.311 87.335 103.962 83.584 105.195 80.271 L 105.214 80.216 C 106.476 76.764 108.158 73.97 110.263 71.672 C 112.422 69.385 115.05 67.59 117.97 66.416 L 117.984 66.411 L 118.029 66.392 L 118.058 66.377 L 118.073 66.372 C 121.061 65.086 124.304 64.429 127.982 64.429 Z  M 141.364 124.938 L 141.532 125.338 L 141.359 124.943 L 141.364 124.938 Z " id="Compound Path" fill="url(#_lgradient_54)"/></svg>
